X: 26170
T: McKellar's
R: reel
M: 4/4
K: Eminor
|:EFGe dcBA|Bgfd e4|gf agf eceg|fedf e4:|
|:gfec gfeB|gfec agfa|bgaf gdBc|egfd e4:|

